src/assets/icons/call_center.svg

<?xml version="1.0" encoding="UTF-8"?>
<svg id="Layer_1" data-name="Layer 1" xmlns="http://www.w3.org/2000/svg" viewBox="0 0 415.54 416.59">
  <defs>
    <style>
      .cls-1 {
        fill: none;
      }

      .cls-2 {
        fill: #a1c51e;
      }
    </style>
  </defs>
  <rect class="cls-1" x="-327.83" y="-297.48" width="1080" height="1060.42"/>
  <g>
    <path class="cls-2" d="m399.75,0c.94.46,1.86.95,2.82,1.36,7.81,3.34,12.62,9.15,12.76,17.69.29,18.56.29,37.13.02,55.69-.15,10.18-7.53,17.75-17.67,19.08-1.21.16-2.46.4-3.64.22-12.11-1.79-22.14,2.47-32.03,9.25-14.84,10.17-30.42,19.26-45.7,28.8-1.01.63-2.07,1.2-3.87,2.23,2.32-13.69,4.52-26.67,6.82-40.24-5.09,0-9.92,0-14.76,0-15.37-.01-23.35-7.94-23.35-23.23,0-15.18.37-30.37-.12-45.53C280.62,12.82,285.09,4.1,297.27,0,331.43,0,365.59,0,399.75,0Zm-69.04,107.21c9.23-5.76,18.02-10.4,25.83-16.33,11.01-8.36,22.81-11.98,36.57-10.46,6.74.74,9.01-2.05,9.02-8.81.02-16.39.02-32.78,0-49.18,0-6.77-2.18-8.94-9.04-8.95-24.66-.02-49.31-.01-73.97,0-5.83,0-11.65-.1-17.47.06-4.42.12-6.88,2.52-6.9,6.83-.08,17.75-.08,35.49,0,53.24.02,4.49,2.61,6.88,7.23,6.92,9.62.07,19.24.02,28.86.02,1.32,0,2.64,0,4.33,0-1.48,8.84-2.88,17.21-4.46,26.66Z"/>
    <path class="cls-2" d="m174.88,276.26c-1.57-2.1-2.29-3.8-3.57-4.65-15.14-10.03-24.96-23.76-29.45-41.37-.29-1.15-1.53-2.51-2.65-2.95-13.18-5.15-19.22-13.81-19.24-27.92-.01-14.64-.04-29.28,0-43.92.12-43.05,29.08-78.33,71.19-86.78,49.42-9.92,99.07,27.01,102.77,77.13,1.29,17.53.6,35.21.73,52.82.09,11.66.06,23.31,0,34.97-.06,13.13-8.57,22.04-21.63,21.53-7.92-.31-14.2.84-19.2,7.78-2.58,3.59-7.11,5.74-10.6,8.73-1.19,1.02-1.89,2.61-3.3,4.65,11.76,2.14,22.26,4.03,32.74,5.99,5.99,1.12,12.07,1.94,17.9,3.63,13.16,3.81,23.65,11.76,28.78,24.44,6.82,16.89,12.15,34.38,18.33,52.21h-144.41c4.26,3.6,7.6,6.41,11.03,9.31-1.67,1.76-2.27,2.46-2.94,3.08-10.69,9.8-21.35,19.64-32.11,29.36-18,16.26-45.31,16.59-62.82-.18-21.43-20.53-42.13-41.82-63.14-62.78-9.4-9.38-18.8-18.77-28.18-28.18-20.12-20.18-20.2-48.66-.17-68.85,9.54-9.61,19.14-19.16,28.77-28.8.79.73,1.41,1.25,1.98,1.81,15.82,15.8,31.63,31.61,47.72,47.68-.85.98-1.55,1.9-2.37,2.72-7.46,7.49-14.95,14.95-22.42,22.44-4.75,4.77-4.73,7.91.1,12.75,6.88,6.91,13.77,13.79,21.09,21.12,1.19-3.35,2.14-6.26,3.25-9.1,6.53-16.74,18.62-26.91,36.27-30.29,14.61-2.8,29.26-5.4,45.52-8.38Zm-21,46.81c7.96,7.99,15.67,15.59,23.21,23.36,1.95,2.01,3.92,2.83,6.73,2.82,43.5-.08,86.99-.06,130.49-.06,1.31,0,2.63,0,4.53,0-3.3-9.97-6.25-19.37-9.54-28.64-4.54-12.85-13.69-20.45-27.11-22.89-11.32-2.06-22.79-3.52-33.89-6.41-8.61-2.25-14.58-.68-20.34,6.27-6.17,7.45-13.59,13.86-20.59,20.83-1.24-1.17-2.24-2.07-3.19-3.02-7.96-7.95-15.85-15.97-23.94-23.78-1.13-1.1-3.35-1.9-4.87-1.64-14.68,2.48-29.34,5.07-43.95,7.92-12.69,2.48-21.39,9.97-25.92,22.12-1.47,3.92-2.6,7.97-4.05,11.9-.75,2.02-.54,3.42,1.13,4.98,3.78,3.5,7.32,7.25,10.96,10.88,4.83,4.81,7.67,4.86,12.81.22,9.04-8.16,18.08-16.34,27.51-24.86Zm126.5-145.37c0-11.33,1.21-22.7-.22-33.72-4.56-35.05-33.81-61.43-68.9-63.33-34.85-1.88-66.83,21.07-75.15,55.25-2.55,10.47-1.89,21.74-2.6,32.64-.2,3.02-.03,6.06-.03,9.55,2.68-1.1,4.64-1.91,6.73-2.77v-7.53c27.55,1.7,49.51-9.02,67.04-29.77,9.06,9.77,18.32,18.17,30.1,23.44,11.76,5.26,24.11,6.79,37.13,6.46v7.53c2.32.89,4.3,1.66,5.9,2.27Zm-73.04-20.41c-14.79,13.5-31.61,21.52-51.15,23.46-2.42.24-2.7,1.55-2.69,3.56.07,10.43-.29,20.88.12,31.3.83,21.41,10.65,37.68,29.86,47.28,18.75,9.36,37.22,7.5,54.67-4.09,1.25-.83,2.36-1.87,3.53-2.82-.13-.27-.27-.55-.4-.82h-33.68v-13.45c1.78,0,3.25,0,4.72,0,12.74,0,25.48-.07,38.21.06,2.54.03,4.09-.69,4.93-3.08,1.38-3.95,3.83-7.82,4.07-11.83.89-14.57,1.1-29.19,1.33-43.8.01-.78-2.07-2-3.35-2.32-5.11-1.24-10.39-1.89-15.44-3.33-13.12-3.74-24.48-10.7-34.73-20.13Zm-42.8,232.79c-10.27-10.46-20.3-20.68-30.34-30.91-10.92,8.24-20.56,7.59-30.26-2.1-14.85-14.84-29.71-29.69-44.55-44.54-9.64-9.64-10.31-19.04-2.2-30.01.13-.18.07-.51.15-1.27-4.9-4.8-10.05-9.8-15.13-14.86-5.05-5.03-10.03-10.12-15.02-15.16-17.84,16.24-18.33,36.68-1.7,53.3,29.22,29.22,58.42,58.46,87.68,87.64,15.43,15.39,37.67,14.28,51.37-2.09Zm11.49-10.06c2.57-2.43,5.26-4.98,7.56-7.16-10.37-10.43-20.37-20.49-30.63-30.81-2.58,2.35-5.34,4.85-7.87,7.16,10.36,10.32,20.49,20.4,30.94,30.81Zm-101.88-114.45c-10.28-10.32-20.36-20.44-30.31-30.43-2.24,2.05-4.67,4.27-6.67,6.09,10.41,10.41,20.51,20.51,30.72,30.71,1.91-1.94,4.08-4.15,6.26-6.37Zm114.55,13.97c6.51,6.52,12.84,12.85,18.64,18.66,6.11-6.08,12.5-12.43,18.92-18.82-12.38,3.61-25.02,3.53-37.56.16Zm80.73-38.25c11.08,2.09,13.34-3.16,10.9-16.32-2.52,1.34-6.02,2.04-7.11,4.04-2.01,3.68-2.61,8.14-3.79,12.28Zm-129.46-28.59v-22.35c-4.55,2.64-6.37,6.4-6.41,11.09-.04,4.73,1.9,8.44,6.41,11.25Zm134.7.18c5.29-3.7,7.12-8.23,6.25-13.73-.59-3.76-2.56-6.74-6.25-8.95v22.68Z"/>
    <path class="cls-2" d="m263.07,28.45c-1.45,4.6-2.7,8.58-3.96,12.61-57.75-15.65-110.9-7.03-158.58,29.23-31.79,24.18-52.17,56.25-62.66,96.03,6.64-3.93,12.35-7.3,18.27-10.8,2.31,3.85,4.46,7.42,6.86,11.43-13.15,7.9-26.08,15.66-39.31,23.61-7.86-13.09-15.58-25.94-23.58-39.26,3.72-2.27,7.36-4.48,11.44-6.97,4.16,6.89,8.23,13.63,12.56,20.8,16.15-60.13,51.37-103.66,107.65-128.95,42.41-19.06,86.29-20.79,131.31-7.73Z"/>
    <path class="cls-2" d="m372.81,151.52c-4.3,7.11-8,13.22-11.95,19.74-3.81-2.25-7.47-4.42-11.51-6.81,7.9-13.17,15.66-26.11,23.58-39.33,13.14,7.88,25.98,15.58,39.31,23.58-2.33,3.9-4.57,7.64-6.88,11.51-6.5-3.88-12.65-7.55-19.32-11.53,19.22,64.98,8.42,124-32.35,178.05-3.7-2.96-6.94-5.55-10.46-8.36,37.93-50.25,48.05-105.4,29.57-166.85Z"/>
    <path class="cls-2" d="m308.13,39.87v-12.7h80.14v12.7h-80.14Z"/>
    <path class="cls-2" d="m308.2,66.93v-12.96h53.19v12.96h-53.19Z"/>
    <path class="cls-2" d="m388.4,66.96h-12.94v-12.97h12.94v12.97Z"/>
  </g>
</svg>

<svg width="416" height="417" viewBox="0 0 416 417" fill="none" xmlns="http://www.w3.org/2000/svg">
<g clip-path="url(#clip0_466_2)">
<path d="M399.75 0C400.69 0.46 401.61 0.95 402.57 1.36C410.38 4.7 415.19 10.51 415.33 19.05C415.62 37.61 415.62 56.18 415.35 74.74C415.2 84.92 407.82 92.49 397.68 93.82C396.47 93.98 395.22 94.22 394.04 94.04C381.93 92.25 371.9 96.51 362.01 103.29C347.17 113.46 331.59 122.55 316.31 132.09C315.3 132.72 314.24 133.29 312.44 134.32C314.76 120.63 316.96 107.65 319.26 94.08C314.17 94.08 309.34 94.08 304.5 94.08C289.13 94.07 281.15 86.14 281.15 70.85C281.15 55.67 281.52 40.48 281.03 25.32C280.62 12.82 285.09 4.1 297.27 0C331.43 0 365.59 0 399.75 0ZM330.71 107.21C339.94 101.45 348.73 96.81 356.54 90.88C367.55 82.52 379.35 78.9 393.11 80.42C399.85 81.16 402.12 78.37 402.13 71.61C402.15 55.22 402.15 38.83 402.13 22.43C402.13 15.66 399.95 13.49 393.09 13.48C368.43 13.46 343.78 13.47 319.12 13.48C313.29 13.48 307.47 13.38 301.65 13.54C297.23 13.66 294.77 16.06 294.75 20.37C294.67 38.12 294.67 55.86 294.75 73.61C294.77 78.1 297.36 80.49 301.98 80.53C311.6 80.6 321.22 80.55 330.84 80.55C332.16 80.55 333.48 80.55 335.17 80.55C333.69 89.39 332.29 97.76 330.71 107.21Z" fill="#2D7555"/>
<path d="M174.88 276.26C173.31 274.16 172.59 272.46 171.31 271.61C156.17 261.58 146.35 247.85 141.86 230.24C141.57 229.09 140.33 227.73 139.21 227.29C126.03 222.14 119.99 213.48 119.97 199.37C119.96 184.73 119.93 170.09 119.97 155.45C120.09 112.4 149.05 77.12 191.16 68.67C240.58 58.75 290.23 95.68 293.93 145.8C295.22 163.33 294.53 181.01 294.66 198.62C294.75 210.28 294.72 221.93 294.66 233.59C294.6 246.72 286.09 255.63 273.03 255.12C265.11 254.81 258.83 255.96 253.83 262.9C251.25 266.49 246.72 268.64 243.23 271.63C242.04 272.65 241.34 274.24 239.93 276.28C251.69 278.42 262.19 280.31 272.67 282.27C278.66 283.39 284.74 284.21 290.57 285.9C303.73 289.71 314.22 297.66 319.35 310.34C326.17 327.23 331.5 344.72 337.68 362.55H193.27C197.53 366.15 200.87 368.96 204.3 371.86C202.63 373.62 202.03 374.32 201.36 374.94C190.67 384.74 180.01 394.58 169.25 404.3C151.25 420.56 123.94 420.89 106.43 404.12C85 383.59 64.3 362.3 43.29 341.34C33.89 331.96 24.49 322.57 15.11 313.16C-5.01001 292.98 -5.09001 264.5 14.94 244.31C24.48 234.7 34.08 225.15 43.71 215.51C44.5 216.24 45.12 216.76 45.69 217.32C61.51 233.12 77.32 248.93 93.41 265C92.56 265.98 91.86 266.9 91.04 267.72C83.58 275.21 76.09 282.67 68.62 290.16C63.87 294.93 63.89 298.07 68.72 302.91C75.6 309.82 82.49 316.7 89.81 324.03C91 320.68 91.95 317.77 93.06 314.93C99.59 298.19 111.68 288.02 129.33 284.64C143.94 281.84 158.59 279.24 174.85 276.26H174.88ZM153.88 323.07C161.84 331.06 169.55 338.66 177.09 346.43C179.04 348.44 181.01 349.26 183.82 349.25C227.32 349.17 270.81 349.19 314.31 349.19C315.62 349.19 316.94 349.19 318.84 349.19C315.54 339.22 312.59 329.82 309.3 320.55C304.76 307.7 295.61 300.1 282.19 297.66C270.87 295.6 259.4 294.14 248.3 291.25C239.69 289 233.72 290.57 227.96 297.52C221.79 304.97 214.37 311.38 207.37 318.35C206.13 317.18 205.13 316.28 204.18 315.33C196.22 307.38 188.33 299.36 180.24 291.55C179.11 290.45 176.89 289.65 175.37 289.91C160.69 292.39 146.03 294.98 131.42 297.83C118.73 300.31 110.03 307.8 105.5 319.95C104.03 323.87 102.9 327.92 101.45 331.85C100.7 333.87 100.91 335.27 102.58 336.83C106.36 340.33 109.9 344.08 113.54 347.71C118.37 352.52 121.21 352.57 126.35 347.93C135.39 339.77 144.43 331.59 153.86 323.07H153.88ZM280.38 177.7C280.38 166.37 281.59 155 280.16 143.98C275.6 108.93 246.35 82.55 211.26 80.65C176.41 78.77 144.43 101.72 136.11 135.9C133.56 146.37 134.22 157.64 133.51 168.54C133.31 171.56 133.48 174.6 133.48 178.09C136.16 176.99 138.12 176.18 140.21 175.32V167.79C167.76 169.49 189.72 158.77 207.25 138.02C216.31 147.79 225.57 156.19 237.35 161.46C249.11 166.72 261.46 168.25 274.48 167.92V175.45C276.8 176.34 278.78 177.11 280.38 177.72V177.7ZM207.34 157.29C192.55 170.79 175.73 178.81 156.19 180.75C153.77 180.99 153.49 182.3 153.5 184.31C153.57 194.74 153.21 205.19 153.62 215.61C154.45 237.02 164.27 253.29 183.48 262.89C202.23 272.25 220.7 270.39 238.15 258.8C239.4 257.97 240.51 256.93 241.68 255.98C241.55 255.71 241.41 255.43 241.28 255.16H207.6V241.71C209.38 241.71 210.85 241.71 212.32 241.71C225.06 241.71 237.8 241.64 250.53 241.77C253.07 241.8 254.62 241.08 255.46 238.69C256.84 234.74 259.29 230.87 259.53 226.86C260.42 212.29 260.63 197.67 260.86 183.06C260.87 182.28 258.79 181.06 257.51 180.74C252.4 179.5 247.12 178.85 242.07 177.41C228.95 173.67 217.59 166.71 207.34 157.28V157.29ZM164.54 390.08C154.27 379.62 144.24 369.4 134.2 359.17C123.28 367.41 113.64 366.76 103.94 357.07C89.09 342.23 74.23 327.38 59.39 312.53C49.75 302.89 49.08 293.49 57.19 282.52C57.32 282.34 57.26 282.01 57.34 281.25C52.44 276.45 47.29 271.45 42.21 266.39C37.16 261.36 32.18 256.27 27.19 251.23C9.34999 267.47 8.85999 287.91 25.49 304.53C54.71 333.75 83.91 362.99 113.17 392.17C128.6 407.56 150.84 406.45 164.54 390.08ZM176.03 380.02C178.6 377.59 181.29 375.04 183.59 372.86C173.22 362.43 163.22 352.37 152.96 342.05C150.38 344.4 147.62 346.9 145.09 349.21C155.45 359.53 165.58 369.61 176.03 380.02ZM74.15 265.57C63.87 255.25 53.79 245.13 43.84 235.14C41.6 237.19 39.17 239.41 37.17 241.23C47.58 251.64 57.68 261.74 67.89 271.94C69.8 270 71.97 267.79 74.15 265.57ZM188.7 279.54C195.21 286.06 201.54 292.39 207.34 298.2C213.45 292.12 219.84 285.77 226.26 279.38C213.88 282.99 201.24 282.91 188.7 279.54ZM269.43 241.29C280.51 243.38 282.77 238.13 280.33 224.97C277.81 226.31 274.31 227.01 273.22 229.01C271.21 232.69 270.61 237.15 269.43 241.29ZM139.97 212.7V190.35C135.42 192.99 133.6 196.75 133.56 201.44C133.52 206.17 135.46 209.88 139.97 212.69V212.7ZM274.67 212.88C279.96 209.18 281.79 204.65 280.92 199.15C280.33 195.39 278.36 192.41 274.67 190.2V212.88Z" fill="#2D7555"/>
<path d="M263.07 28.45C261.62 33.05 260.37 37.03 259.11 41.06C201.36 25.41 148.21 34.03 100.53 70.29C68.74 94.47 48.36 126.54 37.87 166.32C44.51 162.39 50.22 159.02 56.14 155.52C58.45 159.37 60.6 162.94 63 166.95C49.85 174.85 36.92 182.61 23.69 190.56C15.83 177.47 8.11 164.62 0.110001 151.3C3.83 149.03 7.47 146.82 11.55 144.33C15.71 151.22 19.78 157.96 24.11 165.13C40.26 105 75.48 61.47 131.76 36.18C174.17 17.12 218.05 15.39 263.07 28.45Z" fill="#2D7555"/>
<path d="M372.81 151.52C368.51 158.63 364.81 164.74 360.86 171.26C357.05 169.01 353.39 166.84 349.35 164.45C357.25 151.28 365.01 138.34 372.93 125.12C386.07 133 398.91 140.7 412.24 148.7C409.91 152.6 407.67 156.34 405.36 160.21C398.86 156.33 392.71 152.66 386.04 148.68C405.26 213.66 394.46 272.68 353.69 326.73C349.99 323.77 346.75 321.18 343.23 318.37C381.16 268.12 391.28 212.97 372.8 151.52H372.81Z" fill="#2D7555"/>
<path d="M308.13 39.87V27.17H388.27V39.87H308.13Z" fill="#2D7555"/>
<path d="M308.2 66.93V53.97H361.39V66.93H308.2Z" fill="#2D7555"/>
<path d="M388.4 66.96H375.46V53.99H388.4V66.96Z" fill="#2D7555"/>
</g>
<defs>
<clipPath id="clip0_466_2">
<rect width="415.54" height="416.59" fill="white"/>
</clipPath>
</defs>
</svg>
